archdroid-icon-theme/Archdroid-Lime/places/scalable/folder-ubuntu-alt.svg

<svg fill="#CDDC39" height="48" viewBox="0 0 48 48" width="48" xmlns="http://www.w3.org/2000/svg"><path d="m8 8c-2.21 0-3.980469 1.79-3.980469 4l-.019531 24c0 2.21 1.79 4 4 4h32c2.21 0 4-1.79 4-4v-20c0-2.21-1.79-4-4-4h-16l-4-4zm21 9c5.522869 0 10 4.47699 10 10 0 5.522587-4.477131 10-10 10-5.522868 0-10-4.477343-10-10 0-5.52301 4.477131-10 10-10zm3.564453 2.787109c-.516185-.064045-1.043771.177302-1.320312.65625-.368582.638315-.150105 1.455708.488281 1.824219.638526.368793 1.455708.150034 1.824219-.488281.368723-.638598.148362-1.455496-.490235-1.824219-.159614-.092145-.329891-.14662-.501953-.167969zm-3.564453 1.41211c-.923288 0-1.795473.21774-2.570312.601562l.927734 1.66211c.499321-.232339 1.055486-.363282 1.642578-.363282 2.037429 0 3.709577 1.562767 3.884766 3.554688l1.902343-.027344c-.09363-1.470657-.737327-2.791087-1.724609-3.761719-.507576.19177-1.092809.161805-1.599609-.130859-.507435-.292946-.826857-.787927-.914063-1.324219-.493324-.136525-1.011971-.210937-1.548828-.210937zm-3.216797.974609c-1.168398.780625-2.037405 1.975344-2.398437 3.373047.42171.343747.689453.866315.689453 1.453125 0 .586669-.269626 1.10945-.691407 1.453125.360963 1.397845 1.231992 2.592492 2.400391 3.373047l.974609-1.634766c-1.002663-.705554-1.658203-1.871737-1.658203-3.191406 0-1.319457.655541-2.48571 1.658203-3.191406zm-3.583984 3.492188c-.737516 0-1.333985.596468-1.333985 1.333984 0 .737234.596469 1.335937 1.333985 1.335938.737234 0 1.335937-.598704 1.335937-1.335938 0-.737587-.598633-1.333984-1.335937-1.333984zm10.685547 1.679687c-.175048 1.992204-1.847337 3.554688-3.884766 3.554688-.587163 0-1.143187-.130942-1.642578-.363282l-.927734 1.66211c.774909.38368 1.647023.601562 2.570312.601562.536856 0 1.055434-.074417 1.548828-.210937.08721-.536292.406558-1.031061.914063-1.324219.5068-.292523 1.092033-.320746 1.599609-.128906.987212-.970702 1.631123-2.293014 1.724609-3.763672zm-.650391 4.21875c-.172056.021346-.342357.075823-.501953.167969-.638597.368652-.856792 1.185903-.488281 1.824219.368723.638597 1.185621.856933 1.824218.488281.638386-.368582.856934-1.185693.488282-1.824219-.276437-.478736-.806098-.720289-1.322266-.65625z" fill="#CDDC39"/></svg>

<svg fill="#CDDC39" height="48" version="1.1" viewBox="0 0 48 48" width="48" xmlns="http://www.w3.org/2000/svg"><path d="M8 8C5.79 8 4.019531 9.79 4.019531 12L4 36C4 38.21 5.79 40 8 40L40 40C42.21 40 44 38.21 44 36L44 16C44 13.79 42.21 12 40 12L24 12 20 8 8 8zM29 17C34.522869 17 39 21.47699 39 27 39 32.522587 34.522869 37 29 37 23.477132 37 19 32.522657 19 27 19 21.47699 23.477131 17 29 17zM32.564453 19.787109C32.048268 19.723064 31.520682 19.964411 31.244141 20.443359 30.875559 21.081674 31.094036 21.899067 31.732422 22.267578 32.370948 22.636371 33.18813 22.417612 33.556641 21.779297 33.925364 21.140699 33.705003 20.323801 33.066406 19.955078 32.906792 19.862933 32.736515 19.808458 32.564453 19.787109zM29 21.199219C28.076712 21.199219 27.204527 21.416959 26.429688 21.800781L27.357422 23.462891C27.856743 23.230552 28.412908 23.099609 29 23.099609 31.037429 23.099609 32.709577 24.662376 32.884766 26.654297L34.787109 26.626953C34.693479 25.156296 34.049782 23.835866 33.0625 22.865234 32.554924 23.057004 31.969691 23.027039 31.462891 22.734375 30.955456 22.441429 30.636034 21.946448 30.548828 21.410156 30.055504 21.273631 29.536857 21.199219 29 21.199219zM25.783203 22.173828C24.614805 22.954453 23.745798 24.149172 23.384766 25.546875 23.806476 25.890622 24.074219 26.41319 24.074219 27 24.074219 27.586669 23.804593 28.10945 23.382812 28.453125 23.743775 29.85097 24.614804 31.045617 25.783203 31.826172L26.757812 30.191406C25.755149 29.485852 25.099609 28.319669 25.099609 27 25.099609 25.680543 25.75515 24.51429 26.757812 23.808594L25.783203 22.173828zM22.199219 25.666016C21.461703 25.666016 20.865234 26.262484 20.865234 27 20.865234 27.737234 21.461703 28.335937 22.199219 28.335938 22.936453 28.335938 23.535156 27.737234 23.535156 27 23.535156 26.262413 22.936523 25.666016 22.199219 25.666016zM32.884766 27.345703C32.709718 29.337907 31.037429 30.900391 29 30.900391 28.412837 30.900391 27.856813 30.769449 27.357422 30.537109L26.429688 32.199219C27.204597 32.582899 28.076711 32.800781 29 32.800781 29.536856 32.800781 30.055434 32.726364 30.548828 32.589844 30.636038 32.053552 30.955386 31.558783 31.462891 31.265625 31.969691 30.973102 32.554924 30.944879 33.0625 31.136719 34.049712 30.166017 34.693623 28.843705 34.787109 27.373047L32.884766 27.345703zM32.234375 31.564453C32.062319 31.585799 31.892018 31.640276 31.732422 31.732422 31.093825 32.101074 30.87563 32.918325 31.244141 33.556641 31.612864 34.195238 32.429762 34.413574 33.068359 34.044922 33.706745 33.67634 33.925293 32.859229 33.556641 32.220703 33.280204 31.741967 32.750543 31.500414 32.234375 31.564453z"/></svg>
